**kern	**silbe	**harmony	**phrase	**leadinstrument	**rhyme	**timestamp	**harte
*ICvox	*	*M4/4	*	*	*	*	*M4/4
*VRlead	*	*	*	*	*	*	*
*Hstimme	*	*	*	*	*	*	*
*G:	*	*G:	*	*	*	*	*G:
*clefG2	*	*	*	*	*	*	*
r;	.	1r;	.	r	.	0	N.C.
=1	=1	=1	=1	=1	=1	=1	=1
*>Letter>A	*>Letter>A	*>Letter>A	*>Letter>A	*>Letter>A	*>Letter>A	*>Letter>A	*>Letter>A
*>Label>Intro	*>Label>Intro	*>Label>Intro	*>Label>Intro	*>Label>Intro	*>Label>Intro	*>Label>Intro	*>Label>Intro
1r	.	1CM	newline	synthesizer	.	0.949	C:maj
=2	=2	=2	=2	=2	=2	=2	=2
1r	.	1CM	.	synthesizer	.	2.488	C:maj
=3	=3	=3	=3	=3	=3	=3	=3
1r	.	1DM	.	synthesizer	.	4.027	D:maj
=4	=4	=4	=4	=4	=4	=4	=4
1r	.	1GM	.	synthesizer	.	5.566	G:maj
=5	=5	=5	=5	=5	=5	=5	=5
1r	.	1CM	newline	synthesizer	.	7.105	C:maj
=6	=6	=6	=6	=6	=6	=6	=6
1r	.	1CM	.	synthesizer	.	8.638	C:maj
=7	=7	=7	=7	=7	=7	=7	=7
1r	.	1DM	.	synthesizer	.	10.17	D:maj
=8	=8	=8	=8	=8	=8	=8	=8
1r	.	1GM	.	synthesizer	.	11.703	G:maj
=9	=9	=9	=9	=9	=9	=9	=9
*>Letter>B	*>Letter>B	*>Letter>B	*>Letter>B	*>Letter>B	*>Letter>B	*>Letter>B	*>Letter>B
*>Label>Interlude	*>Label>Interlude	*>Label>Interlude	*>Label>Interlude	*>Label>Interlude	*>Label>Interlude	*>Label>Interlude	*>Label>Interlude
1r	.	1GM	newline	synthesizer	.	13.235	G:maj
=10	=10	=10	=10	=10	=10	=10	=10
1r	.	1AM	.	synthesizer	.	14.78	A:maj/b7
=11	=11	=11	=11	=11	=11	=11	=11
1r	.	1GM	.	synthesizer	.	16.324	G:maj
=12	=12	=12	=12	=12	=12	=12	=12
1r	.	1AM	.	synthesizer	.	17.868	A:maj/b7
=13	=13	=13	=13	=13	=13	=13	=13
1r	.	1GM	newline	synthesizer	.	19.412	G:maj
=14	=14	=14	=14	=14	=14	=14	=14
1r	.	1AM	.	synthesizer	.	20.956	A:maj/b7
=15	=15	=15	=15	=15	=15	=15	=15
1r	.	1GM	.	synthesizer	.	22.501	G:maj
=16	=16	=16	=16	=16	=16	=16	=16
1r	.	1AM	.	synthesizer	.	24.045	A:maj/b7
=17	=17	=17	=17	=17	=17	=17	=17
*>Letter>C	*>Letter>C	*>Letter>C	*>Letter>C	*>Letter>C	*>Letter>C	*>Letter>C	*>Letter>C
*>Label>Verse	*>Label>Verse	*>Label>Verse	*>Label>Verse	*>Label>Verse	*>Label>Verse	*>Label>Verse	*>Label>Verse
4r	.	1GM	newline	voice	.	25.59	G:maj
8r	.	.	.	.	.	.	.
8G	Well	.	.	.	.	.	.
8B	there	.	.	.	.	.	.
8B	was	.	.	.	.	.	.
4B	no	.	.	.	.	.	.
=18	=18	=18	=18	=18	=18	=18	=18
4c#	rea-	1AM	.	voice	(A	27.133	A:maj/b7
4A	-son	.	.	.	a)	.	.
4A	to	.	.	.	.	.	.
8F#	be-	.	.	.	(a	.	.
[8G	-lieve	.	.	.	A)	.	.
=19	=19	=19	=19	=19	=19	=19	=19
4G]	_	1GM	.	voice	.	28.677	G:maj
8r	.	.	.	.	.	.	.
8G	she'd	.	.	.	.	.	.
4B	al-	.	.	.	.	.	.
4d	-ways	.	.	.	.	.	.
=20	=20	=20	=20	=20	=20	=20	=20
4.c#	be	1AM	.	voice	a	30.22	A:maj/b7
4B	there	.	.	.	B	.	.
4A	_	.	.	.	.	.	.
8r	.	.	.	.	.	.	.
=21	=21	=21	=21	=21	=21	=21	=21
8r	.	1GM	newline	voice	.	31.764	G:maj
8G	But	.	.	.	.	.	.
8G	if	.	.	.	.	.	.
8G	you	.	.	.	.	.	.
4B	don't	.	.	.	.	.	.
4d	put	.	.	.	.	.	.
=22	=22	=22	=22	=22	=22	=22	=22
4c#	fait	1AM	.	voice	.	33.303	A:maj/b7
4A	in	.	.	.	.	.	.
4A	what	.	.	.	.	.	.
8F#	you	.	.	.	.	.	.
8F#	be-	.	.	.	(a	.	.
=23	=23	=23	=23	=23	=23	=23	=23
8G	-lieve	1GM	.	voice	A)	34.841	G:maj
4B	in	.	.	.	.	.	.
4r	.	.	.	.	.	.	.
8G	it's	.	.	.	.	.	.
12d	get-	.	.	.	.	.	.
12d	-ting	.	.	.	.	.	.
12d	you	.	.	.	.	.	.
=24	=24	=24	=24	=24	=24	=24	=24
4.e	no-	1AM	.	voice	.	36.38	A:maj/b7
8c#	-where	.	.	.	B	.	.
8B	_	.	.	.	.	.	.
8A	_	.	.	.	.	.	.
4r	.	.	.	.	.	.	.
=25	=25	=25	=25	=25	=25	=25	=25
2r	.	1Am	newline	voice	.	37.918	A:min
4A	'Cos	.	.	.	.	.	.
4B	it	.	.	.	.	.	.
=26	=26	=26	=26	=26	=26	=26	=26
4d	hurts	1Bmm	.	voice	.	39.468	B:min7
4B	you	.	.	.	.	.	.
8A	ne-	.	.	.	.	.	.
8G	-ver	.	.	.	.	.	.
8E	let	.	.	.	.	.	.
[8B	go	.	.	.	.	.	.
=27	=27	=27	=27	=27	=27	=27	=27
2B]	_	1Am	.	voice	.	41.018	A:min/b3
4A	Don't	.	.	.	.	.	.
8B	look	.	.	.	.	.	.
[8e	down	.	.	.	.	.	.
=28	=28	=28	=28	=28	=28	=28	=28
8e]	_	1DM	.	voice	.	42.568	D:sus2(b7)
4.d	_	.	.	.	.	.	.
8r	.	.	.	.	.	.	.
8D	just	.	.	.	.	.	.
8B	look	.	.	.	.	.	.
[8B	up	.	.	.	.	.	.
=29	=29	=29	=29	=29	=29	=29	=29
2B]	_	1Am	newline	voice	.	44.118	A:min
4A	'Cos	.	.	.	.	.	.
4B	she's	.	.	.	.	.	.
=30	=30	=30	=30	=30	=30	=30	=30
4d	al-	1Bmm	.	voice	.	45.655	B:min7
4B	-ways	.	.	.	.	.	.
8A	there	.	.	.	.	.	.
8G	_	.	.	.	.	.	.
8E	be-	.	.	.	(c	.	.
[8B	-hind	.	.	.	C)	.	.
=31	=31	=31	=31	=31	=31	=31	=31
4.B]	_	1Am	.	voice	.	47.192	A:min/b3
8B	you	.	.	.	.	.	.
8r	.	.	.	.	.	.	.
4r	.	.	.	.	.	.	.
[8e	just	.	.	.	.	.	.
=32	=32	=32	=32	=32	=32	=32	=32
8e]	_	1DM	.	voice	.	48.729	D:sus2(b7)
8d	to	.	.	.	.	.	.
8B	re-	.	.	.	(c	.	.
4d	-mind	.	.	.	C)	.	.
4.d	you	.	.	.	.	.	.
=33	=33	=33	=33	=33	=33	=33	=33
*>Letter>A	*>Letter>A	*>Letter>A	*>Letter>A	*>Letter>A	*>Letter>A	*>Letter>A	*>Letter>A
*>Label>Chorus	*>Label>Chorus	*>Label>Chorus	*>Label>Chorus	*>Label>Chorus	*>Label>Chorus	*>Label>Chorus	*>Label>Chorus
4.B	Two	1CM	newline	voice	.	50.266	C:maj
[8A	hearts	.	.	.	.	.	.
2A]	_	.	.	.	.	.	.
=34	=34	=34	=34	=34	=34	=34	=34
4.r	.	1CM	.	voice	.	51.809	C:maj
8D	be-	.	.	.	.	.	.
8G	-liev-	.	.	.	.	.	.
8G	-ing	.	.	.	.	.	.
4F#	in	.	.	.	.	.	.
=35	=35	=35	=35	=35	=35	=35	=35
2A	just	1DM	.	voice	.	53.353	D:maj
4.A	one	.	.	.	.	.	.
[8B	mind	.	.	.	C	.	.
=36	=36	=36	=36	=36	=36	=36	=36
2B]	_	1GM	.	voice	.	54.897	G:maj
6G	You	.	.	.	.	.	.
6A	know	.	.	.	.	.	.
6B	we're	.	.	.	.	.	.
=37	=37	=37	=37	=37	=37	=37	=37
4.B	two	1CM	newline	voice	.	56.44	C:maj
[8A	hearts	.	.	.	.	.	.
2A]	_	.	.	.	.	.	.
=38	=38	=38	=38	=38	=38	=38	=38
2r	.	1CM	.	voice	.	57.976	C:maj
8G	Liv-	.	.	.	.	.	.
8G	-ing	.	.	.	.	.	.
4F#	in	.	.	.	.	.	.
=39	=39	=39	=39	=39	=39	=39	=39
2A	just	1DM	.	voice	.	59.512	D:maj
4.d	one	.	.	.	.	.	.
8B	mind	.	.	.	C	.	.
=40	=40	=40	=40	=40	=40	=40	=40
8A	_	1GM	.	voice	.	61.048	G:maj
4.G	_	.	.	.	.	.	.
2r	.	.	.	.	.	.	.
=41	=41	=41	=41	=41	=41	=41	=41
*>Letter>B	*>Letter>B	*>Letter>B	*>Letter>B	*>Letter>B	*>Letter>B	*>Letter>B	*>Letter>B
*>Label>Interlude	*>Label>Interlude	*>Label>Interlude	*>Label>Interlude	*>Label>Interlude	*>Label>Interlude	*>Label>Interlude	*>Label>Interlude
1r	.	1GM	newline	synthesizer	.	62.584	G:maj
=42	=42	=42	=42	=42	=42	=42	=42
1r	.	1AM	.	synthesizer	.	64.132	A:maj/b7
=43	=43	=43	=43	=43	=43	=43	=43
1r	.	1GM	.	synthesizer	.	65.681	G:maj
=44	=44	=44	=44	=44	=44	=44	=44
1r	.	1AM	.	synthesizer	.	67.229	A:maj/b7
=45	=45	=45	=45	=45	=45	=45	=45
1r	.	1GM	newline	synthesizer	.	68.778	G:maj
=46	=46	=46	=46	=46	=46	=46	=46
1r	.	1AM	.	synthesizer	.	70.31	A:maj/b7
=47	=47	=47	=47	=47	=47	=47	=47
1r	.	1GM	.	synthesizer	.	71.843	G:maj
=48	=48	=48	=48	=48	=48	=48	=48
1r	.	1AM	.	synthesizer	.	73.375	A:maj/b7
=49	=49	=49	=49	=49	=49	=49	=49
*>Letter>C	*>Letter>C	*>Letter>C	*>Letter>C	*>Letter>C	*>Letter>C	*>Letter>C	*>Letter>C
*>Label>Verse	*>Label>Verse	*>Label>Verse	*>Label>Verse	*>Label>Verse	*>Label>Verse	*>Label>Verse	*>Label>Verse
4r	.	1GM	newline	voice	.	74.908	G:maj
8r	.	.	.	.	.	.	.
8G	Well	.	.	.	.	.	.
4B	there's	.	.	.	.	.	.
4B	no	.	.	.	.	.	.
=50	=50	=50	=50	=50	=50	=50	=50
4c#	ea-	1AM	.	voice	(A	76.458	A:maj/b7
4A	-sy	.	.	.	a)	.	.
4A	way	.	.	.	.	.	.
4F#	to	.	.	.	.	.	.
=51	=51	=51	=51	=51	=51	=51	=51
4r	.	1GM	.	voice	.	78.007	G:maj
8r	.	.	.	.	.	.	.
8G	to	.	.	.	.	.	.
4B	un-	.	.	.	.	.	.
4d	-der-	.	.	.	.	.	.
=52	=52	=52	=52	=52	=52	=52	=52
4.c#	-stand	1AM	.	voice	D	79.557	A:maj/b7
4B	it	.	.	.	.	.	.
4A	_	.	.	.	.	.	.
8r	.	.	.	.	.	.	.
=53	=53	=53	=53	=53	=53	=53	=53
4r	.	1GM	newline	voice	.	81.107	G:maj
8G	there's	.	.	.	.	.	.
8G	so	.	.	.	.	.	.
8B	much	.	.	.	.	.	.
8B	of	.	.	.	.	.	.
4d	my	.	.	.	.	.	.
=54	=54	=54	=54	=54	=54	=54	=54
4c#	life	1AM	.	voice	.	82.651	A:maj/b7
8B	in	.	.	.	.	.	.
4B	her	.	.	.	.	.	.
4.A	_	.	.	.	.	.	.
=55	=55	=55	=55	=55	=55	=55	=55
4r	.	1GM	.	voice	.	84.194	G:maj
8G	and	.	.	.	.	.	.
8G	it's	.	.	.	.	.	.
4B	like	.	.	.	.	.	.
4d	I	.	.	.	.	.	.
=56	=56	=56	=56	=56	=56	=56	=56
4.e	planned	1AM	.	voice	D	85.737	A:maj/b7
8c#	it	.	.	.	.	.	.
8B	_	.	.	.	.	.	.
8A	_	.	.	.	.	.	.
4r	.	.	.	.	.	.	.
=57	=57	=57	=57	=57	=57	=57	=57
2r	.	1Am	newline	voice	.	87.281	A:min
4A	And	.	.	.	.	.	.
4B	it	.	.	.	.	.	.
=58	=58	=58	=58	=58	=58	=58	=58
8d	teach-	1Bmm	.	voice	(A	88.82	B:min7
8d	-es	.	.	.	a_	.	.
8B	you	.	.	.	.	.	.
8B	to	.	.	.	.	.	.
8A	ne-	.	.	.	.	.	.
8G	-ver	.	.	.	.	.	.
8E	let	.	.	.	.	.	.
[8B	go	.	.	.	E	.	.
=59	=59	=59	=59	=59	=59	=59	=59
2B]	_	1Am	.	voice	.	90.359	A:min/b3
4A	There's	.	.	.	.	.	.
8B	so	.	.	.	.	.	.
[8e	much	.	.	.	.	.	.
=60	=60	=60	=60	=60	=60	=60	=60
8e]	_	1DM	.	voice	.	91.898	D:sus2(b7)
4.d	love	.	.	.	.	.	.
8A	you'll	.	.	.	.	.	.
8G	ne-	.	.	.	.	.	.
8E	-ver	.	.	.	.	.	.
[8B	know	.	.	.	E	.	.
=61	=61	=61	=61	=61	=61	=61	=61
2B]	_	1Am	newline	voice	.	93.437	A:min
4A	She	.	.	.	.	.	.
4B	can	.	.	.	.	.	.
=62	=62	=62	=62	=62	=62	=62	=62
4d	reach	1Bmm	.	voice	A	94.982	B:min7
8B	you	.	.	.	.	.	.
8B	no	.	.	.	.	.	.
8A	mat-	.	.	.	.	.	.
8G	-ter	.	.	.	.	.	.
8E	how	.	.	.	.	.	.
[8B	far	.	.	.	F	.	.
=63	=63	=63	=63	=63	=63	=63	=63
2B]	_	1Am	.	voice	.	96.527	A:min/b3
4r	.	.	.	.	.	.	.
8e	Where-	.	.	.	.	.	.
[8e	-e-	.	.	.	.	.	.
=64	=64	=64	=64	=64	=64	=64	=64
8e]	_	1DM	.	voice	.	98.072	D:sus2(b7)
8d	-ver	.	.	.	.	.	.
8B	you	.	.	.	.	.	.
4d	are	.	.	.	F	.	.
16B	_	.	.	.	.	.	.
16A	_	.	.	.	.	.	.
4G	_	.	.	.	.	.	.
=65	=65	=65	=65	=65	=65	=65	=65
*>Letter>A	*>Letter>A	*>Letter>A	*>Letter>A	*>Letter>A	*>Letter>A	*>Letter>A	*>Letter>A
*>Label>Chorus	*>Label>Chorus	*>Label>Chorus	*>Label>Chorus	*>Label>Chorus	*>Label>Chorus	*>Label>Chorus	*>Label>Chorus
4.B	Two	1CM	newline	voice	.	99.616	C:maj
[8A	hearts	.	.	.	.	.	.
2A]	_	.	.	.	.	.	.
=66	=66	=66	=66	=66	=66	=66	=66
2r	.	1CM	.	voice	.	101.16	C:maj
8G	liv-	.	.	.	.	.	.
8G	-ing	.	.	.	.	.	.
4F#	in	.	.	.	.	.	.
=67	=67	=67	=67	=67	=67	=67	=67
2A	just	1DM	.	voice	.	102.704	D:maj
4.A	one	.	.	.	.	.	.
[8B	mind	.	.	.	C	.	.
=68	=68	=68	=68	=68	=68	=68	=68
2B]	_	1GM	.	voice	.	104.248	G:maj
6G	beat-	.	.	.	(A	.	.
6A	-ing	.	.	.	a)	.	.
6B	to	.	.	.	.	.	.
=69	=69	=69	=69	=69	=69	=69	=69
4.B	ge-	1CM	newline	voice	.	105.791	C:maj
[8A	-ther	.	.	.	.	.	.
2A]	_	.	.	.	.	.	.
=70	=70	=70	=70	=70	=70	=70	=70
2r	.	1CM	.	voice	.	107.323	C:maj
4G	'till	.	.	.	.	.	.
4F#	the	.	.	.	.	.	.
=71	=71	=71	=71	=71	=71	=71	=71
2A	end	1DM	.	voice	.	108.855	D:maj
4.d	of	.	.	.	.	.	.
[8B	time	.	.	.	C	.	.
=72	=72	=72	=72	=72	=72	=72	=72
2B]	_	1GM	.	voice	.	110.387	G:maj
6G	You	.	.	.	.	.	.
6A	know	.	.	.	.	.	.
6B	we're	.	.	.	.	.	.
=73	=73	=73	=73	=73	=73	=73	=73
*>Letter>A	*>Letter>A	*>Letter>A	*>Letter>A	*>Letter>A	*>Letter>A	*>Letter>A	*>Letter>A
*>Label>Chorus	*>Label>Chorus	*>Label>Chorus	*>Label>Chorus	*>Label>Chorus	*>Label>Chorus	*>Label>Chorus	*>Label>Chorus
4.B	two	1CM	newline	voice	.	111.919	C:maj
[8A	hearts	.	.	.	.	.	.
2A]	_	.	.	.	.	.	.
=74	=74	=74	=74	=74	=74	=74	=74
2r	.	1CM	.	voice	.	113.466	C:maj
8G	liv-	.	.	.	.	.	.
8G	-ing	.	.	.	.	.	.
4F#	in	.	.	.	.	.	.
=75	=75	=75	=75	=75	=75	=75	=75
2A	just	1DM	.	voice	.	115.013	D:maj
4.A	one	.	.	.	.	.	.
[8B	mind	.	.	.	C	.	.
=76	=76	=76	=76	=76	=76	=76	=76
4.B]	_	1GM	.	voice	.	116.56	G:maj
8E	To-	.	.	.	.	.	.
8G	-ge-	.	.	.	(G	.	.
8A	-ther	.	.	.	g)	.	.
4B	for	.	.	.	.	.	.
=77	=77	=77	=77	=77	=77	=77	=77
4.B	e-	1CM	newline	voice	(G	118.107	C:maj
[8A	-ver	.	.	.	g)	.	.
2A]	_	.	.	.	.	.	.
=78	=78	=78	=78	=78	=78	=78	=78
2r	.	1CM	.	voice	.	119.651	C:maj
4G	'till	.	.	.	.	.	.
4F#	the	.	.	.	.	.	.
=79	=79	=79	=79	=79	=79	=79	=79
2A	end	1DM	.	voice	.	121.194	D:maj
4.d	of	.	.	.	.	.	.
8B	time	.	.	.	C	.	.
=80	=80	=80	=80	=80	=80	=80	=80
8A	_	1GM	.	voice	.	122.738	G:maj
4.G	_	.	.	.	.	.	.
2r	.	.	.	.	.	.	.
=81	=81	=81	=81	=81	=81	=81	=81
*>Letter>D	*>Letter>D	*>Letter>D	*>Letter>D	*>Letter>D	*>Letter>D	*>Letter>D	*>Letter>D
*>Label>Trans	*>Label>Trans	*>Label>Trans	*>Label>Trans	*>Label>Trans	*>Label>Trans	*>Label>Trans	*>Label>Trans
1r	.	2E-M	newline	synthesizer	.	124.281	E-:maj/3
.	.	2A-M	.	synthesizer	.	125.048	A-:maj
=82	=82	=82	=82	=82	=82	=82	=82
1r	.	2FM	.	synthesizer	.	125.814	F:maj/3
.	.	2B-M	.	synthesizer	.	126.581	B-:maj
=83	=83	=83	=83	=83	=83	=83	=83
*>Letter>E	*>Letter>E	*>Letter>E	*>Letter>E	*>Letter>E	*>Letter>E	*>Letter>E	*>Letter>E
*>Label>Bridge	*>Label>Bridge	*>Label>Bridge	*>Label>Bridge	*>Label>Bridge	*>Label>Bridge	*>Label>Bridge	*>Label>Bridge
*G-:	*	*G-:	*	*	*	*	*G-:
2r	.	1C-MM	newline	voice	.	127.348	C-:maj7
4r	.	.	.	.	.	.	.
8g-	she	.	.	.	(A	.	.
[8g-	knows	.	.	.	A)	.	.
=84	=84	=84	=84	=84	=84	=84	=84
8g-]	_	1A-mm	.	voice	.	128.892	A-:min7
8r	.	.	.	.	.	.	.
4r	.	.	.	.	.	.	.
4r	.	.	.	.	.	.	.
4b-	there'll	.	.	.	.	.	.
=85	=85	=85	=85	=85	=85	=85	=85
4a-	al-	1B-mm	.	voice	.	130.435	B-:min7
4a-	-ways	.	.	.	.	.	.
4.f	be	.	.	.	.	.	.
8B-	a	.	.	.	.	.	.
=86	=86	=86	=86	=86	=86	=86	=86
8d-	spe-	1D-M	.	voice	.	131.979	D-:maj/2
4d-	-cial	.	.	.	.	.	.
4B-	place	.	.	.	.	.	.
8d-	in	.	.	.	.	.	.
8a-	my	.	.	.	.	.	.
16a-	heart	.	.	.	F	.	.
16a	_	.	.	.	.	.	.
=87	=87	=87	=87	=87	=87	=87	=87
16a-	_	1A-mm	newline	voice	.	133.523	A-:min7
16g-	_	.	.	.	.	.	.
8a-	_	.	.	.	.	.	.
2r	.	.	.	.	.	.	.
8e-	for	.	.	.	.	.	.
8g-	her	.	.	.	.	.	.
=88	=88	=88	=88	=88	=88	=88	=88
4e-	_	1A-mm	.	voice	.	135.063	A-:min7
4r	.	.	.	.	.	.	.
2r	.	.	.	.	.	.	.
=89	=89	=89	=89	=89	=89	=89	=89
4r	.	1B-mm	.	voice	.	136.603	B-:min7
8e-	she	.	.	.	.	.	.
4.g-	knows	.	.	.	.	.	.
8e-	she	.	.	.	.	.	.
[8g-	knows	.	.	.	.	.	.
=90	=90	=90	=90	=90	=90	=90	=90
4g-]	_	1B-M	.	voice	.	138.143	B-:sus4(b7)
8e-	she	.	.	.	.	.	.
4g-	knows	.	.	.	.	.	.
8a-	_	.	.	.	.	.	.
4r	.	.	.	.	.	.	.
=91	=91	=91	=91	=91	=91	=91	=91
4.r	.	1C-MM	newline	voice	.	139.683	C-:maj7
4b-	Yeah	.	.	.	.	.	.
8r	.	.	.	.	.	.	.
8g-	she	.	.	.	.	.	.
[8g-	knows	.	.	.	.	.	.
=92	=92	=92	=92	=92	=92	=92	=92
8g-]	_	1A-mm	.	voice	.	141.225	A-:min7
8r	.	.	.	.	.	.	.
4r	.	.	.	.	.	.	.
4r	.	.	.	.	.	.	.
4b-	no	.	.	.	.	.	.
=93	=93	=93	=93	=93	=93	=93	=93
4a-	mat-	1B-mm	.	voice	.	142.768	B-:min7
4a-	-ter	.	.	.	.	.	.
2f	how	.	.	.	.	.	.
=94	=94	=94	=94	=94	=94	=94	=94
4d-	far	1D-M	.	voice	F	144.31	D-:maj/2
8d-	a-	.	.	.	.	.	.
4.B-	-part	.	.	.	F	.	.
8a-	we	.	.	.	.	.	.
16a-	are	.	.	.	F	.	.
16a	_	.	.	.	.	.	.
=95	=95	=95	=95	=95	=95	=95	=95
16a-	_	1A-mm	newline	voice	.	145.853	A-:min7
16g-	_	.	.	.	.	.	.
8a-	_	.	.	.	.	.	.
2r	.	.	.	.	.	.	.
8e-	she	.	.	.	(A	.	.
8g-	knows	.	.	.	A)	.	.
=96	=96	=96	=96	=96	=96	=96	=96
4e-	_	1A-mm	.	voice	.	147.395	A-:min7
4r	.	.	.	.	.	.	.
2r	.	.	.	.	.	.	.
=97	=97	=97	=97	=97	=97	=97	=97
*G:	*	*G:	*	*	*	*	*G:
4r	.	1Amm	.	voice	.	148.937	A:min7
8r	.	.	.	.	.	.	.
8e	I'm	.	.	.	.	.	.
8g	al-	.	.	.	.	.	.
8g	-ways	.	.	.	.	.	.
4a	right	.	.	.	C	.	.
=98	=98	=98	=98	=98	=98	=98	=98
4b	there	1DM	.	voice	.	150.479	D:sus2(b7)
8a	be-	.	.	.	.	.	.
4a	-side	.	.	.	C	.	.
8g	her	.	.	.	.	.	.
4e	We're	.	.	.	.	.	.
=99	=99	=99	=99	=99	=99	=99	=99
*>Letter>A	*>Letter>A	*>Letter>A	*>Letter>A	*>Letter>A	*>Letter>A	*>Letter>A	*>Letter>A
*>Label>Chorus	*>Label>Chorus	*>Label>Chorus	*>Label>Chorus	*>Label>Chorus	*>Label>Chorus	*>Label>Chorus	*>Label>Chorus
4.g	two	1CM	newline	voice	.	152.022	C:maj
8g	hearts	.	.	.	.	.	.
2e	_	.	.	.	.	.	.
=100	=100	=100	=100	=100	=100	=100	=100
4.r	.	1CM	.	voice	.	153.559	C:maj
8B	be-	.	.	.	.	.	.
8e	-liev-	.	.	.	.	.	.
8d	-ing	.	.	.	.	.	.
4B	in	.	.	.	.	.	.
=101	=101	=101	=101	=101	=101	=101	=101
2d	just	1DM	.	voice	.	155.097	D:maj
4.d	one	.	.	.	.	.	.
[8d	mind	.	.	.	C	.	.
=102	=102	=102	=102	=102	=102	=102	=102
2d]	_	1GM	.	voice	.	156.634	G:maj
6e	Beat-	.	.	.	(A	.	.
6g	-ing	.	.	.	a)	.	.
6g	to-	.	.	.	.	.	.
=103	=103	=103	=103	=103	=103	=103	=103
2a	-ge-	1CM	newline	voice	.	158.172	C:maj
8g	-ther	.	.	.	.	.	.
4.e	_	.	.	.	.	.	.
=104	=104	=104	=104	=104	=104	=104	=104
4.r	.	1CM	.	voice	.	159.728	C:maj
8d	un-	.	.	.	.	.	.
4e	-til	.	.	.	.	.	.
4g	the	.	.	.	.	.	.
=105	=105	=105	=105	=105	=105	=105	=105
2a	end	1DM	.	voice	.	161.285	D:maj
4.a	of	.	.	.	.	.	.
[8g	time	.	.	.	C	.	.
=106	=106	=106	=106	=106	=106	=106	=106
2g]	_	1GM	.	voice	.	162.842	G:maj
6b	You	.	.	.	.	.	.
6a	know	.	.	.	.	.	.
6g	we're	.	.	.	.	.	.
=107	=107	=107	=107	=107	=107	=107	=107
*>Letter>A	*>Letter>A	*>Letter>A	*>Letter>A	*>Letter>A	*>Letter>A	*>Letter>A	*>Letter>A
*>Label>Chorus	*>Label>Chorus	*>Label>Chorus	*>Label>Chorus	*>Label>Chorus	*>Label>Chorus	*>Label>Chorus	*>Label>Chorus
4.g	two	1CM	newline	voice	.	164.399	C:maj
16g	hearts	.	.	.	.	.	.
16f#	_	.	.	.	.	.	.
2e	_	.	.	.	.	.	.
=108	=108	=108	=108	=108	=108	=108	=108
4.r	.	1CM	.	voice	.	165.941	C:maj
8d	be-	.	.	.	.	.	.
8e	-liev-	.	.	.	.	.	.
8d	-ing	.	.	.	.	.	.
4B	in	.	.	.	.	.	.
=109	=109	=109	=109	=109	=109	=109	=109
2d	just	1DM	.	voice	.	167.483	D:maj
8e	liv-	.	.	.	.	.	.
8e	-ing	.	.	.	.	.	.
8g	in	.	.	.	.	.	.
[8g	just	.	.	.	.	.	.
=110	=110	=110	=110	=110	=110	=110	=110
8g]	_	1GM	.	voice	.	169.026	G:maj
4a	one	.	.	.	.	.	.
4g	mind	.	.	.	C	.	.
8r	.	.	.	.	.	.	.
4r	.	.	.	.	.	.	.
=111	=111	=111	=111	=111	=111	=111	=111
4r	.	1CM	newline	voice	.	170.568	C:maj
8r	.	.	.	.	.	.	.
8g	to-	.	.	.	.	.	.
8b	-geth-	.	.	.	(G	.	.
8a	-er	.	.	.	g)	.	.
8g	for-	.	.	.	.	.	.
[8g	-ev-	.	.	.	(G	.	.
=112	=112	=112	=112	=112	=112	=112	=112
8g]	_	1CM	.	voice	.	172.105	C:maj
4.e	-er	.	.	.	g)	.	.
4d	'till	.	.	.	.	.	.
4d	the	.	.	.	.	.	.
=113	=113	=113	=113	=113	=113	=113	=113
2a	end	1DM	.	voice	.	173.643	D:maj
4.dd	of	.	.	.	.	.	.
16b	time	.	.	.	C	.	.
16a	_	.	.	.	.	.	.
=114	=114	=114	=114	=114	=114	=114	=114
2g	_	1GM	.	voice	.	175.18	G:maj
6e	You	.	.	.	.	.	.
6g	know	.	.	.	.	.	.
6g	we're	.	.	.	.	.	.
=115	=115	=115	=115	=115	=115	=115	=115
*>Letter>A	*>Letter>A	*>Letter>A	*>Letter>A	*>Letter>A	*>Letter>A	*>Letter>A	*>Letter>A
*>Label>Chorus	*>Label>Chorus	*>Label>Chorus	*>Label>Chorus	*>Label>Chorus	*>Label>Chorus	*>Label>Chorus	*>Label>Chorus
4.g	two	1CM	newline	voice	.	176.717	C:maj
16g	hearts	.	.	.	.	.	.
16f#	_	.	.	.	.	.	.
2e	_	.	.	.	.	.	.
=116	=116	=116	=116	=116	=116	=116	=116
2r	.	1CM	.	voice	.	178.256	C:maj
8e	liv-	.	.	.	.	.	.
8d	-ing	.	.	.	.	.	.
4B	in	.	.	.	.	.	.
=117	=117	=117	=117	=117	=117	=117	=117
2d	just	1DM	.	voice	.	179.794	D:maj
8d	liv-	.	.	.	.	.	.
8d	-ing	.	.	.	.	.	.
8d	in	.	.	.	.	.	.
[8d	just	.	.	.	.	.	.
=118	=118	=118	=118	=118	=118	=118	=118
8d]	_	1GM	.	voice	.	181.332	G:maj
4d	one	.	.	.	.	.	.
4.d	mind	.	.	.	C	.	.
8r	.	.	.	.	.	.	.
[8d	just	.	.	.	.	.	.
=119	=119	=119	=119	=119	=119	=119	=119
8d]	_	1CM	newline	voice	.	182.871	C:maj
4e	one	.	.	.	.	.	.
2e	mind	.	.	.	C	.	.
[8A	just	.	.	.	.	.	.
=120	=120	=120	=120	=120	=120	=120	=120
8A]	_	1CM	.	voice	.	184.411	C:maj
4G	one	.	.	.	.	.	.
8B	mind	.	.	.	C	.	.
8A	_	.	.	.	.	.	.
8G	_	.	.	.	.	.	.
4E	_	.	.	.	.	.	.
=121	=121	=121	=121	=121	=121	=121	=121
2r	.	1DM	.	voice	.	185.952	D:maj
4d	'till	.	.	.	.	.	.
8d	the	.	.	.	.	.	.
[8d	end	.	.	.	.	.	.
=122	=122	=122	=122	=122	=122	=122	=122
8d]	_	1GM	.	voice	.	187.493	G:maj
4d	of	.	.	.	.	.	.
[8d	time	.	.	.	C	.	.
2d]	_	.	.	.	.	.	.
=123	=123	=123	=123	=123	=123	=123	=123
*>Letter>A	*>Letter>A	*>Letter>A	*>Letter>A	*>Letter>A	*>Letter>A	*>Letter>A	*>Letter>A
*>Label>Fadeout	*>Label>Fadeout	*>Label>Fadeout	*>Label>Fadeout	*>Label>Fadeout	*>Label>Fadeout	*>Label>Fadeout	*>Label>Fadeout
4.e	Two	1CM	newline	voice	.	189.034	C:maj
[8d	hearts	.	.	.	.	.	.
2d]	_	.	.	.	.	.	.
=124	=124	=124	=124	=124	=124	=124	=124
1r	.	1CM	.	voice	.	190.572	C:maj
=125	=125	=125	=125	=125	=125	=125	=125
1r	.	1DM	.	voice	.	192.111	D:maj
=126	=126	=126	=126	=126	=126	=126	=126
1r	.	1GM	.	voice	.	193.649	G:maj
=127	=127	=127	=127	=127	=127	=127	=127
1r	.	1CM	newline	voice	.	195.188	C:maj
=128	=128	=128	=128	=128	=128	=128	=128
1r	.	1CM	.	voice	.	196.516	C:maj
=129	=129	=129	=129	=129	=129	=129	=129
1r	.	1DM	.	voice	.	197.844	D:maj
=130	=130	=130	=130	=130	=130	=130	=130
1r	.	1GM	.	voice	.	199.172	G:maj
=131	=131	=131	=131	=131	=131	=131	=131
1r	.	1CM	.	voice	.	200.5	C:maj
r;	.	1r;	.	r	.	201.828	N.C.
r;	.	1r;	.	r	.	204.748	N.C.
*-	*-	*-	*-	*-	*-	*-	*-
!!!BillboardChartDate: 1989/02/25
!!!BillboardPeak: 1
!!!BillboardWeeksOnChart: 18
!!!COC: Phil Collins
!!!ENC: Nathaniel Condit-Schultz
!!!EST: Awating manual error checking and editing.
!!!OTL: Two Hearts
!!!RDF**chordsym: original McGill chord annotation + (implied pitch class set, with bass pitch in first position)
!!!RDF**harmony: **recip + pitch class of root + harmonic quality
!!!RDF**leadinstrument: original McGill primary instrumentation annotation
!!!RDF**phrase: newline = linebreak in original McGill transcription
!!!RDF**timestamp: McGill audio timestamp in seconds
!!!RDT: 2017/01/12/
!!!SampleActualRank: 48
!!!SampleID#: 0043
!!!SampleTargetRank: 50
